/* XPM */
static char *_000_F_185813665_slEkV3CPjjtidQ8KzJUZdWvNtZWgRntA1717576987[] = {
/* columns rows colors chars-per-pixel */
"64 64 256 2 ",
"   c #04001A",
".  c #15010A",
"X  c #270914",
"o  c #030129",
"O  c #171A2C",
"+  c #0F1335",
"@  c #2D0E2F",
"#  c #1D253C",
"$  c #1E2A3C",
"%  c #192637",
"&  c #1B262E",
"*  c #23253B",
"=  c #242B3D",
"-  c #282738",
";  c #29333C",
":  c #2D2533",
">  c #0F241D",
",  c #41023B",
"<  c #331544",
"1  c #1D2C43",
"2  c #1B2745",
"3  c #1A3649",
"4  c #1C3755",
"5  c #0B3751",
"6  c #242C43",
"7  c #2B2D44",
"8  c #272A47",
"9  c #342A47",
"0  c #2C3344",
"q  c #2C344B",
"w  c #273749",
"e  c #333345",
"r  c #32354A",
"t  c #333A4C",
"y  c #3A3B4C",
"u  c #383649",
"i  c #292D59",
"p  c #243C54",
"a  c #2B3B54",
"s  c #243B5A",
"d  c #2D3D5A",
"f  c #283357",
"g  c #333453",
"h  c #333B54",
"j  c #3B3C53",
"k  c #343C5B",
"l  c #3B3D5B",
"z  c #3A3455",
"x  c #382B53",
"c  c #0D3D64",
"v  c #293862",
"b  c #3C3D63",
"n  c #373A67",
"m  c #2F3368",
"M  c #0B1E48",
"N  c #45184A",
"B  c #472856",
"V  c #443C5C",
"C  c #443758",
"Z  c #412F48",
"A  c #453C64",
"S  c #51386A",
"D  c #1B4259",
"F  c #05414D",
"G  c #2B435B",
"H  c #27455A",
"J  c #3A4254",
"K  c #34425C",
"L  c #3C425C",
"P  c #384557",
"I  c #32414D",
"U  c #1A4867",
"Y  c #1A4A75",
"T  c #1C5578",
"R  c #16546B",
"E  c #2C4463",
"W  c #2D4A63",
"Q  c #2B4B6B",
"!  c #254867",
"~  c #334463",
"^  c #3C4563",
"/  c #344A63",
"(  c #3D4A65",
")  c #3D446A",
"_  c #344C6B",
"`  c #3D4B6B",
"'  c #35466B",
"]  c #29536B",
"[  c #34516D",
"{  c #3C526C",
"}  c #335469",
"|  c #2A4C73",
" . c #3C4D72",
".. c #364974",
"X. c #2D5274",
"o. c #285976",
"O. c #345474",
"+. c #3C5374",
"@. c #35557B",
"#. c #3B547A",
"$. c #335B7C",
"%. c #3C5B7C",
"&. c #385A75",
"*. c #1D687A",
"=. c #056279",
"-. c #26647B",
";. c #38637D",
":. c #42435C",
">. c #444558",
",. c #50525F",
"<. c #434564",
"1. c #4A4465",
"2. c #444A66",
"3. c #4A4B65",
"4. c #43466A",
"5. c #4B456B",
"6. c #444B6B",
"7. c #4A4C6C",
"8. c #514C6D",
"9. c #514668",
"0. c #44516C",
"q. c #4B516D",
"w. c #4A5466",
"e. c #444D71",
"r. c #4B4D73",
"t. c #424C7A",
"y. c #494876",
"u. c #524D74",
"i. c #574B78",
"p. c #435374",
"a. c #4C5274",
"s. c #45547B",
"d. c #4C547B",
"f. c #435B7C",
"g. c #4C5A7C",
"h. c #495A74",
"j. c #515474",
"k. c #53557B",
"l. c #5A547D",
"z. c #545A7D",
"x. c #575879",
"c. c #54546E",
"v. c #675E7A",
"b. c #43617D",
"n. c #58617D",
"m. c #55656D",
"M. c #79797B",
"N. c #666C7A",
"B. c #195E85",
"V. c #11558B",
"C. c #2A5B85",
"Z. c #355C83",
"A. c #3B5C82",
"S. c #355B8A",
"D. c #3A4C82",
"F. c #1A6788",
"G. c #1A7699",
"H. c #146A91",
"J. c #286688",
"K. c #34638B",
"L. c #3A6587",
"P. c #276B96",
"I. c #376895",
"U. c #36769A",
"Y. c #287491",
"T. c #2777A6",
"R. c #3777A5",
"E. c #2A6BA3",
"W. c #1D7BA1",
"Q. c #4C5C83",
"!. c #475A84",
"~. c #535581",
"^. c #545C83",
"/. c #595A83",
"(. c #565988",
"). c #575188",
"_. c #645D8A",
"`. c #685E96",
"'. c #426283",
"]. c #4C6283",
"[. c #45658B",
"{. c #566286",
"}. c #486995",
"|. c #556895",
" X c #4A7597",
".X c #5B7399",
"XX c #777A86",
"oX c #636C9B",
"OX c #6B6D9C",
"+X c #656895",
"@X c #64729C",
"#X c #6A739C",
"$X c #657397",
"%X c #787998",
"&X c #6E6B93",
"*X c #4679AC",
"=X c #676DA2",
"-X c #6674A3",
";X c #6B73A3",
":X c #6C7AA5",
">X c #6E7CAA",
",X c #6778A5",
"<X c #737EAB",
"1X c #767AA7",
"2X c #7479B0",
"3X c #857D91",
"4X c #827AAA",
"5X c #8B75AD",
"6X c #1C8496",
"7X c #168D96",
"8X c #278595",
"9X c #2989A7",
"0X c #3888A6",
"qX c #2997A9",
"wX c #3793A7",
"eX c #299BB5",
"rX c #1AA6BA",
"tX c #2899B2",
"yX c #78838B",
"uX c #7C8B9C",
"iX c #7A8696",
"pX c #4988A3",
"aX c #5798BA",
"sX c #4F90AE",
"dX c #7583AB",
"fX c #7982AD",
"gX c #7A88A6",
"hX c #6A8BB6",
"jX c #7887B4",
"kX c #6797BB",
"lX c #7893BB",
"zX c #6C89AB",
"xX c #4BA7BC",
"cX c #5E94AD",
"vX c #11B2C6",
"bX c #33B2C9",
"nX c #2587C4",
"mX c #5B9CC2",
"MX c #689BC3",
"NX c #769AC3",
"BX c #6E8FC4",
"VX c #58A6C8",
"CX c #4CB4CD",
"ZX c #6CA8CD",
"AX c #43BDE6",
"SX c #2DD0E5",
"DX c #48C3DE",
"FX c #54CBE7",
"GX c #81818D",
"HX c #848798",
"JX c #8D909F",
"KX c #8588A8",
"LX c #8385B5",
"PX c #8F93AC",
"IX c #A2AAB5",
"UX c #86B1C2",
/* pixels */
"IXgXPXPXuXHXKXHXHXHXHXuXiXiXgXKXgXgXiXiXHXGXyX#XgXuXuXgXgXuXgXgXuXgXyXM.M.XXM.XXXXM.M.XXM.M.uXyXuXgXgXgXgXyXHXiX3XHXUXZXUXHXuXPX",
"%Xi d...| s b n n A n n M i v f n Y s v i m c 2 ' n f i f i f v i V.H.. o o o       o o   o f m n ) A !.n 4 !.m ' Z.2XVXvX+ m n ",
"PX~.^.l.f.E L.[.I.I.L.&.k q.x.z.^.(.p.k.k.q.( 3.x.{.k.6.6.q.q.6.3.Q.P.: G y = ; ; 0 y q t j ~ k.(.z.z.^.h.:.x.j.p.Q.KXlXbX7.d.p.",
"iXn 0.4.0._ k.(.(.Q.A.!.' v ` E / G h _ / J w b k.^.r.6.6.7.k.a.:.f.F.@ 1 % $ 1 # * 6 q q 6 ( /.a.~.~.k.L.6 q Q H d.1XNXDXS g.r.",
"3XY '.#.K.Q u g q 9 9 # G &.%.Z.[ U ) [.$.$.@.` k.k.k.z.j.2.6.2.<.+.J.X & & @ * O = = e = # 6.r.a.^.k.^.{.p y K K Q.fXdXbX! o._ ",
"GX#.{.~.|.-.O = * r 8 w p W { G p _ ] Q 7.p.X.9 6.6.d.k.4.<.q.a.A ~.V.> 5 F F 5 5 @ % O O * w l L L b l z 7 J ^ J p.oX,XbXa.!.Q.",
"3Xt./.k.g.} 6 x h g 2 y >.u e y e u t ] ( 1.$.p 4.4.d.a.6.7.7.6.<.s.X. XcXmXxXkXCXrX< Z.S.Z.J.U.E.U.T.9X9X! u :.q / @X#XxXa.i.g.",
"%Xn ^.l.(.O.= q 6 = 0 t k j k q t P l ' 0.4.t.E 7.6.a.6.6.a.3.2.6.` g.1X2XjXjX4XlXbXi v.^.d.z.(.^.{.].n.*XG.@ P r ) ;XLXxXD O.E ",
"iX=.g / ( G q a p p 2 q J l J t I l y / 0.3.Q.E q h a K K d ^ v h * ^.-XfXjXLXgXlXeXV ^.a.k.k.d.k.j.x.8.|.F.: t q ( #X;XpXp.p.+.",
"PXCXU.d.'.$.s.[.[.!.O.0 >.k y j y y L L 6.) d.4 v O.#.A.Z.L.K.K.P.T !.;XdX1XjXfXjXCXA z.e.y.3.( /.].(.!.d.K.e r q K @X;XpXp.4.f.",
"PXkXwXi.j.` 6.k.l.d.f.t t t I y ; J j p P 2.e.H 2.j.a.<.<.5.a.7.6.Z. .;XjXLXgXjX1XwXw r.6.6.2.7.r.y.j.0.7.S.; e X @ _.+X(.@ B ~.",
"PXhXpX8.Q. .q.k.j.{.#.k y t y q q 0 r w <.5.` W z.j.0.6.6.) 6.4.i.s.f.#X-X,XdX:XdXaXa 7.( ` r.u.7.<.e.a.e.D.2 0 6X8X9X0XqXqX7X*.",
"PXlXpXy.^.s.j.z.(.~.!.q >.J u I z t t w L p.6.L q.2.2.2.6.2.7.q.<.{ O.oX;X#X:X#XjXaX1 <.J :.<.L L L L k C ; P.I.kXNXlXZXMXZXZXDX",
"PXjXwXr.z.s.g.d.k.k.A./ { a 7 7 6 0 0 = = : @ q ` 6.) 4.4.6.5.r.0.a.O.=XdX,XjXLX5XsX3 %.@.| X.| O.Z.o.C.F.a %.L.<X4XLX4XKX<XLXxX",
"PXBXsX5.g.s.~.d.h.j.'.s.[.J.s O.Z.K.J.I.Y.T.V.e 7.7.7.q.7.e.6.a.r.k.Q u.{.k.~.{._.g.u p.6.6.r.r.q.6. .7.*XP.b.}.gXjXjXjX1XhXLXMX",
"JXhX;.A 2.( u.<.l A ^ <.k | {.z.^.(.~. .w.!.nXd 6.6.a.7.6.6.6.6.3.6...! H.B.F.H.G.F.g 6.2.<.<.2.d.7.4.1.].K.^.f.LXjXjXjXLXjXfXcX",
"iXc G a p ! { X.O.| ! O.$.[ j.z.k.~.6.0.k.1.T.4 k <.l L L 4.L A C V h ` s.h.Q.s.!.0X( 8.5.p.k.a.^.6.d.r.p._ 6.! +X1XfXdX<X4XfXzX",
"iXX.|.[ ^ ].!.h.d.7.p.d.r.#.~.d.g.k.v.x.6.5.R.D %.A.;.o.s d o.C.P.B.4 ^ :.2.( d.5.L.3 g d b 5.4.j j z l <.K E W Q %.s.[.'.%.L.@.",
"XXf a._ ! i E %.%.L.A.Z.[ ( j.~.j.q.j.{.^.u.I.f.x.(.).}.Z.2.h.{ #.'.Q 7.1.2.3.z.x._ G Z.S.L.Z.F.P.P.K.J.T p +.p.p.g.f.p.h.{.k.p.",
"3Xv j.g / p.w.a.^.(.~.x.d.] { ~ ^ A j B r.r.+...7.a.5.A E j 4.y.5.a.[ ) r.6.8.j.s.0.) i.k.r.8.k.z.^.^.#.J.v !.[.'.L.!.'.@.O.%.! ",
"%Xv r.G J e.A V r.9.9.i.V O.aXVXbXbXbXrXU i ] 4 ' o.J.C.J.| a k g g 8 7 t z l g x q j k.h.d.k.!.r.3.6.8.) k 3.7.y.~.k.k.r.e.h.p.",
"3X) 7.K +.4 o.J.P.P.P.F.=.e.gXdX;XzX,XmXbXwXk ` p.h.k.A.$.I.E O.3 p H D D ! R U D 4 * 7 t <.J h h e q q a 1 L b k V :.L l 2.<.g ",
"yXU O.q b ' L.}. X X X(.T.*X2X;XoX+X.X_.oXAXvX@ L ^ l a C g 3 h a h H J L I / } ] Y 8 ! 4 5 ' ..Q E f O.Q O.#.A.$.&.d G Q ! 4 2 ",
"iX..{.R 9 2.:.<.i.j.r.8.<.U.=X.X=XoX-X$X+X`.AXJ...@.S.J.J...I.Y e e e e t 0 e : 0 ! q h.#.A.@.! ' s l d.h.6./.g.^.g._ d ' X.X.O.",
"3Xi w.#.d 6.7.6.y.a.g.6.p. X|.=XoX=XOX.X@X&XCX0XS 6.1.<.%.` 6.C.- u u r t q 0 y t H r <.3.3.h.#.#.$.b ~.h.r.k.g.d.2.` % ) e.7.6.",
"%Xv q.e.' 6.3.6.4.h.a.4.6.C.#X<X@X.X-X2XfXOXVX0XC 7.q.6.@.( 2.Z.q t r 0 t e t t 0 H d e.a.2.:.a.7.h._ 7.4.<.7.y.e.1._ p a.<.^ 2.",
"HXi 7.p. .L e.a.7.q.a.7.6.Z.1X>XOXOX.XOX,X;XkXU.C 6.7.a...<.7.$.t r e t r e r e e G a 0.4.2.7.<.d.^.$.6.r.6.<.7.6.q.#.f k.7.7.6.",
"yXn 6.q...4.` 5.r.q./.r.y.@.#X;X=X;X.X@XoX+XzX] r.6.6.a.` <.7.#.; e e t 0 t t q w d h ( 6.7.<.7.) r.+.g 1.:.:.l l z l l d.k.1.<.",
"HXn 7.1.O.( a.8.a.6.r.) p.W ( p.s.e.b.p.e.'.' 9 j.e.4.6.^ 6.r. .6 y r r r t q q u s j 6.6.( ` ( 2.<.#.] ] o.J.$.-.p s L 5.d.p.a.",
"3Xv q.7.' h 0.<.:.w.8.u.p.G Q $.| Z.L.Z.L.Y.P.| 7.6.2.^ k 2.( E $ q 0 e e u e y I q I 6.5.6.6.1.3.2.p.p.6.{.[.|.U.f...2.k.^.d.d.",
"XXi 4.4.8 +.[.L.L.L.S.$.Z.G k.i.a.u.7.a.i.7.s.o.* = 0 7 = a a w 1 w % 1 # 3 6 p 6 + r 2.A 7.( a.5.j.r.~ k.k.k.k.s.4.( 8.i.r.V <.",
"iXY &.! W f.6.4.e._ ) ) s.a e.^.j.6.a.y.j.a.y._ & * 6 6 = q a K W H E @.Z.K.K.K.I.W.v 6.p.1.A V V C 9 4 H G x ^ k q K.U.K.J.o.o.",
"3Xt.].{.Q.#.&.4 ' Q @.[ [ ~ 6.a.P 7.6.<.d.j.6.X.* = = = = r e e e I L ` r.7.<.7.A }.B.: l W o.-.*.7X=....XCXF.X $ q n.{.|.}.}.0X",
"3X..d.k.r.r.+.#.h.z.g.d.f.b.{.~.p.u.z.7.d.d.( _ # - $ 2 # u j w 0 H l 6.7.6.4.<.w.e.C.O  XpXaXmXmXZXCX0Xz.LXDX> * ~ x.k.~.j.i. X",
"yXs a.5.z.r.7.k @ B B < N @ < N , @ A >.z b K g 1 % 2 * # : : = 6 3 g q.2.2.6.{ / 5.@.t ;X;XoX`.+X%XLXMXpX5XCX6XX C ^.s.p.z.).}.",
"%Xy.l.z.h.r.w.o.vXvXeXeXeXrXrXvXrXvXF.B.G.P.E.P.E.T.T.P.W.F.p ..^ H s 2.<.6.5.5.d.i.O.( -X.X$XOX#XjX1XMXsX4XNXeXX e d.a.<.3.7.s.",
"XXm ` ( d ) 8  XNXhXBXlXNXMXMXVXZXFXvXB g.h.6.7.2.p.6.6.s.E.l t.6.{ ~ 4.2.2.7.a.u.2.[ ) ;X=X$X@X,X>X1XMXxX1XlXwX. w 4.<.2.4.<.6.",
"XX5 / 4 H ` 4 k.&X1X%X#X+X_.+XOXOXjXbXN g.3.( a.4.( 2.4.>.E.P >.) p.E <.6.2.<.4.2.2.{ e.oX=X.XoXfXgXfXZXsX4XlX0XX h j.a.~.Q.k.d.",
"3XM >.L :.C a b.>XdX2X=X-X-X-XdXjXNXbXS d.r.r.a.d.7.6.y.:.S.! 6.<.r.E 4.( ( 6.6.4.q. .e.@XoX#XoX;XfX1XNXsX1XLXpX+ g q.a.u.7.6.0.",
"XX2 >.P J >.G {.jXdXfXdX@X+X;XfX1X1XbXq.~.r.6.7.<.p.:.6.<.f.Q <.6.6.E 5.6.4.7.<.a.a.Q s.$X=X.XoX=X,XfXlXpX:XlX.X+ d +.o.D.;.f.@.",
"M.+ :.J P :.L f.1X<XLXdX<XdXfX;XoX;XCXp.q.4.a.3.7.e.5.6.q.p.G <.4.e.E 4.6.6.7.6.r.a.` ' OX;X=XOX-X@X;X@X[.+XLX[.. r j.f.k.n.8.f.",
"XXo u r J y t ` @X;XzX2X<X;X,X.XOX1XsXH 5.A P v K k ^ ^ l h 2 1.6.e.E ^ 2.2.7.7.) 3.` p s.A.!.'.g.^.|./ 3 4.K f s s m ! } _ W i ",
"M.o ) t y J a K :XoX2XfXoX1X1XOXOX{.( f #.X.[ X._ O.O.[ [ ..s b 6.e.' <.7.6.7.6.2.<.+.Q S.I.S.I.G.#.U.0XR.W.W g.s.+.#.b.%.}.U.9X",
"XXo t j L L K I { b.[.%.&.%.@.} | ! 5 l l.7.6.6.7.k.r.6.q.p.W :.2.e.W <.0.0.4.( 6.4.` K <.<.<.,.R.' y.q.c.*Xb.~.4.2.0.1.5.d.).0X",
"M.M L L I j <.b h.Q.^.Q.Q.Q.Q.g.g.6.A.k 6.( ( 5.3.0.7.4.6.` G K 7.6.' ( 6.6.6.5.4.7.p.~ 6.2.j.q.$. .4.u.r.[.f.l.~./.{.` h.{.l.}.",
"XX+ L e ; ; X . B S C B B ( 2.7.<.C ' w j.u.e.u.7.4.7.4.7.r.d L <.y.' ( <.4.4.7.4.7.e.~ p.4.7.6.s.~ j b  ._ s ( <.7.( A 5.5.( ` ",
"gXF [ | ! f Y.eXqXqXwXwXG.f | ! o.Y U 8 f q g I I ~ ) ^ ~ ) s V 6.e._ <.q.6.6.6.6.5.` ~ 7.7.7.r.+.D o.p K ^ W / W H ! d @.@.Z.@.",
"KX..z.p.a.+.hXNXhXhXzXjXCXo.k.h.f.I.T.8 & : % % 6  .#.O.O.A.O.k 3.A d C C C C C C <.+.~ 7.7.6.6.@.L @.j L J j L ^ L L 7.g.{.g.^.",
"KX6.a.) 4.0.1XOX#X$X&X;XcX] ^ 4.r.5.;.4 - - * 6 0 L <.A <.l ( 3 ] ! ] *.*.*.F.J.F.Q * q 6.:.<.:.l a e.l :.:.:.K P ^ w 6.^.~.Q.j.",
"HX&Xj.r.r.f.:X,X2X>X,X2X.X5 k e./ ^ E 3 3 1 2 # 8 [ ' _ o.Q f ].zXkXaXaXxXVXVXVXAXSXT 6 Q | | | U k O.w q q 0 t 9 u : y.z.k.d.z.",
"JXXXn.d.p.#.$XdX;X#X-X:X.XE d.#.f.s.s.s.@.o.#.@.a y.0.6.6.k.d {.#X1X1X;X+X+X+XOX_.DXqX^ !.#.A.S.I.%.!.!.A.S.I.U.U.9XG.A (.^.~.x.",
"KXN.a.L l s 7./.(.k.z.z.^ L 2.2.8.2.6.7.<.4.5.p.W 6.4.6.7.g.! g..XdXjXfX-XoX$X@X+XkX9XN 0.z C 9 z l K w._.{.l.k.(.[.U.d 3.7.r.) ",
"iXN.#.[ #.| % O O O O O O :.4.6.a.a.4.7.2.( 6.+./ 7.6.7.h.0.' {.-X,X<XfX@XoX-X$X$XlXwXs A.A.C.P.Q U.B.y.|.l.g.Q.~.z.s.0 0 6 8 $.",
"uXXXz.6.7.p.$ 6 $ 2 * 7 = k ( q.6.6.6.6.6.6.6.6./ 7.q.q.7.4.Q ^.1X|.+X<X1X#X;X:XdXjXpXy.Q.k.u.pX[.u.U.6.3.) 4.e.:.^ / : z # 6./.",
"JXN.7.2.6._ 6 # % = * # & l d.6.7.4.r.7.7.7.<.6.` y.e.r.k.r._  .#X#X;XjX<X2X<X,X2X1X X<.d.q.8.U.L.x.[.E %.K.U.I.T.J. XT.f / x.^.",
"3Xc.a.4.5._ # # * $ 6 = % l q.<.<.6.2.2.{ <.2.` / ( 6.7.7.5.+.p k 0.p.n.h.^.^.Q.[.0.f 6.7.7.V L.!.u.%._ Q.^.z.j..XI.i.*XY.r./.k.",
"HXx.q.<.5.| = # - % = * * q 6.6.y.6.8.a.6.a.4.<.K r.e.w.e.2.{.W O.@.O..._ #.!.!.f.g.@.i.j.d.k.I.+.e.s.E k.k.g.l.{.;.i.}.I.k.z.k.",
"HXXXq.4.e._ & * # = % $ * * h 5.:.V L L z C l * @ B B B A A y.} x.^.z.k.x.z.z.d.z.z.%.d.z.^.^.Z.d.j.d.^ j.z.g.l.{.;.j.}.L.5.j.^.",
"HXXXd.y.j 9 & # 1 = * $ # - 3 D U R s ] J.P.| R 7XG.8X8XG.8X*.^ k.^.d.z.z.k.^.z.k.k.f.k.k.~.k.4.3.7.( a r.k.a.k.Q.p.u.[.o.g ^ 2.",
"yXw.^ H Q B.& = $ 6 $ 1 $ & y k G ] O.r.a. XP.kXZXaXZXZXMXZXSX0Xi.~.g.~.d.e.d.k.z.j.%.~ _ +.' 3 s W s 4 K l :.J k d L s.! f H s ",
"M.m.>.I s.R.# O : @ X X & 2 h r ; q ^ 5.3.].U.&X@X;X1X1XKX5XFX0X5.l.k.z.a.4.a.j.k.u._ 8 G [ } R S.0XR.U.K.C.Z.J.J...i.!.o.r C J ",
"3XN.I H 4._ 4 @.F.P.H.T 6 j 0 0 t w ( 6.a.^.I..XdX>XjXdXjXLXDXJ.i.^.z.z.a.<.a.a.k.e._ q I t u ! l q.l.l.{.].^.k.S.%.j.Q.] y >.>.",
"yXv.>.I ` b a.Q.].!.A.[.G w t t e y ^ r.h.j.J.+X<X$X1XfXfX2XDXo.r.r.a.r.y.6.a.k.a.6./ 7 y t u p / g./.z.s. .y.r.!.;.x.^._ y P L ",
"M.+ t e w :.a.r.7.7.<.6.d 7 e 7 t 0 l 6.2.7...r.|./.|.(.(.{.0Xw l L L :.l L <.<.^ <.g * 0 0 0 - h 5.<.<.( ^ q.6.d.X.<.e.k ; r a "
};
