/* XPM */
static char *_717577032644[] = {
/* columns rows colors chars-per-pixel */
"64 64 166 2 ",
"   c #050D10",
".  c #060E11",
"X  c #071113",
"o  c #081214",
"O  c #091315",
"+  c #0B1316",
"@  c #0C1417",
"#  c #0D1518",
"$  c #0D1719",
"%  c #0E1619",
"&  c #0F171A",
"*  c #0E181A",
"=  c #0F191B",
"-  c #10181B",
";  c #11191C",
":  c #101A1C",
">  c #111B1D",
",  c #121A1D",
"<  c #131B1E",
"1  c #121C1E",
"2  c #131D1F",
"3  c #141C1F",
"4  c #151D20",
"5  c #141E20",
"6  c #151F21",
"7  c #161E21",
"8  c #171F22",
"9  c #162022",
"0  c #172123",
"q  c #182023",
"w  c #192124",
"e  c #182224",
"r  c #192325",
"t  c #1A2225",
"y  c #1B2326",
"u  c #1A2426",
"i  c #1B2527",
"p  c #1C2427",
"a  c #1D2528",
"s  c #1C2628",
"d  c #1D2729",
"f  c #1E2629",
"g  c #1F272A",
"h  c #1E282A",
"j  c #1F292B",
"k  c #20282B",
"l  c #21292C",
"z  c #202A2C",
"x  c #212B2D",
"c  c #222A2D",
"v  c #232B2E",
"b  c #222C2E",
"n  c #232D2F",
"m  c #242C2F",
"M  c #252D30",
"N  c #242E30",
"B  c #252F31",
"V  c #262E31",
"C  c #272F32",
"Z  c #263032",
"A  c #273133",
"S  c #283033",
"D  c #293134",
"F  c #283234",
"G  c #293335",
"H  c #2A3235",
"J  c #2B3336",
"K  c #2A3436",
"L  c #2B3537",
"P  c #2C3437",
"I  c #2D3538",
"U  c #2C3638",
"Y  c #2D3739",
"T  c #2E3639",
"R  c #2F373A",
"E  c #2E383A",
"W  c #2F393B",
"Q  c #30383B",
"!  c #31393C",
"~  c #303A3C",
"^  c #313B3D",
"/  c #323A3D",
"(  c #333B3E",
")  c #323C3E",
"_  c #333D3F",
"`  c #343C3F",
"'  c #353D40",
"]  c #343E40",
"[  c #353F41",
"{  c #363E41",
"}  c #373F42",
"|  c #364042",
" . c #374143",
".. c #384043",
"X. c #394144",
"o. c #384244",
"O. c #394345",
"+. c #3A4245",
"@. c #3B4346",
"#. c #3A4446",
"$. c #3B4547",
"%. c #3C4447",
"&. c #3D4548",
"*. c #3C4648",
"=. c #3D4749",
"-. c #3E4649",
";. c #3F474A",
":. c #3E484A",
">. c #3F494B",
",. c #40484B",
"<. c #41494C",
"1. c #404A4C",
"2. c #414B4D",
"3. c #424A4D",
"4. c #434B4E",
"5. c #424C4E",
"6. c #434D4F",
"7. c #444C4F",
"8. c #454D50",
"9. c #444E50",
"0. c #454F51",
"q. c #464E51",
"w. c #474F52",
"e. c #465052",
"r. c #475153",
"t. c #485053",
"y. c #495154",
"u. c #485254",
"i. c #495355",
"p. c #4A5255",
"a. c #4B5356",
"s. c #4A5456",
"d. c #4B5557",
"f. c #4C5457",
"g. c #4D5558",
"h. c #4C5658",
"j. c #4D5759",
"k. c #4E5659",
"l. c #4F575A",
"z. c #4E585A",
"x. c #4F595B",
"c. c #50585B",
"v. c #51595C",
"b. c #505A5C",
"n. c #515B5D",
"m. c #525A5D",
"M. c #535B5E",
"N. c #525C5E",
"B. c #545C5F",
"V. c #555D60",
"C. c #555F61",
"Z. c #565E61",
"A. c #575F62",
"S. c #566062",
"D. c #596164",
"F. c #586264",
"G. c #596365",
"H. c #5A6265",
"J. c #5A6466",
"K. c #5B6567",
"L. c #5C6467",
"P. c #5C6668",
"I. c #5F676A",
"U. c #5E686A",
"Y. c #61696C",
"T. c #616B6D",
/* pixels */
"' R +.%.t.q.' / +.+.X.X...} } }  .[ _ #.) W #.W j x B W N K N L N N N B B B Z Z F A Y o.6.^ O.^ ..+...-.+.&.7.T ;.-.&.%.@.X.....",
"} ! +.%.7.w.+.X.R Q / ` { ..+.@.| ] ^  .W U  .L x N B E Z Y B G B B B Z Z A A A B B Z ~ 6.) | W ' } ' +.} +.,.J @.@.+.X...} { ' ",
"/ J / / ` ,.....+.+.X.X.....} } ) ~ Y _ K A ^ Z n K N Y K ~ A Z Z A A A F F F F A G x L s.#. ._ } X.} %.X.@.3.I %.@.@.+.+.X.X.X.",
"' R ` ( I <.;.;.,.;.&.@...{ ` ( #.o.[ *.] ~ $.~ n ^ n L L ~ A n A A A F F F G G Z F u b s.#.) ) ( ' ( ..' ..-.D } } } } } } } } ",
"/ R / ! k %.@.@.' ' { { { { { { ) ~ W | ~ E #.W h | N F G L B x B B Z Z A A A A n N 5 i 2.) U L P R I / R ! ..v R R Q ! ! / ( ( ",
"' ' +.X.a &.%.} %.@.+...{ ' ( ( A Z Z ~ U U O.W 9 $.Z Z N b x j b b n n n N N N U L h n 1.~ W E Q / ! { ( ' %.V / / ( ' { } ..X.",
"-.<.t.w.v 8.<...X.} ( R H M c k A A G ] _ [ 9.$.$ =.F B h r d h j j j z z z x x E G x B [ B U G I R I / R / X.v I T Q ! ( ' } } ",
"D T } } # Q D g q q 7 4 < ; - & 1 2 6 n n Z | E X >.G n u 1 u d d d d d h h h j j e 6 0 h * u 6 y a p l f k C ; y p f k c m V V ",
"! ! ! ! ! ! / / 3.@./ +.&.%./ #  .|  .#.*.o.~ F ] E W | | W W  .) | : Z ] d L z L L U Y W ~ ^ ^ P H S V v k f a t w p , g +.X.` ",
"p.p.p.p.p.p.p.p.7.<.&.t.k.B.V...x.s.0.9.e.r.0.5.0.2.9.i.r.1.5.d.N.h.n 1.K.s.n.5.b.b.n.n.n.n.N.N.D.V.k.7.X.R S v P P / I ..g.y.8.",
"%.%.%.@.@.+.+.X.T Q R X.&.w.M.<.s.2.| ~ _ O.:.1.o.#.:.1.$.[ O.6.9.6.n :.b.$.r.0.| | [ ] _ ) ^ ^ ' ` ( / Q R T I M c P J ( <.+.+.",
"7.4.4.<.,.;.-.-.I ! R ( Q ..p.-.e.=.) Y ~  .*.>.| $.1.>.O.[ #.5.2.5.G =.e.W #.2.2.1.>.=.$.O.o. .' ' } X.@.&.-.;.D v H S I ..' @.",
"&.%.@.X.} ' ` ( ( } ` ` P / q.%.6.=.| [ O.:.>.>.=.6.e.6.1.1.6.0.i.6.F #.j.>.2.>.>.>.=.$.O. .| [ ` ` ` ` ` ` ( ( { T Q C S ' ..8.",
"<.,.-.%.X.} ' ` P Q I T C T ,.' | _ ^ _ o.#.O.| *.>.>.$.=.5.2.*.E ^ b U *.o.=.>.#.#.O.o. .| [ [ ` ' { ..+.@.&.&.} ! ! l g T { 3.",
"-.&.+.} ` ! R T / ' / ` R ` <./ ] ^ ~ )  .#.O.| 2.2.*.O.2.s.0.o.x ) U L ) _ =.9.O.O.O.O.#.#.#.#.} } } { { { { ' @.%.-.H M { @.4.",
"-.&.+.} ` Q T I { { / ( T Q ..m E K Z F Y ) _ ^ =.#.) W $.r.>.E ~ $.E G | :.=. .o.O.O.$.*.=.:.:./ ( ` { ..+.@.%.` %.3.P V { ..@.",
"X...{ ' ( ( ( ( ! M k S ! T M g ! %...%.X.Q ' ` / } ;.7.7.,.X.` 8.-.H V +.4.3.y.%.@.X.@.<.3.;.%.` R { 3.&.T Q ;.} { ( ' V } @.` ",
"k m J / ..@.@.@.8 v C f w g c f Q } T I V p c g p k C I Q R I J ..R k a H ! Q Q ` J J ! ! Q R J D I ( ' ' ( ` ' c M k c q S D V ",
"J I R T S g 3 # % 8 a a g m v a ` ' J S f q m v V C D P T Q / / { H m M S P P m T w y M a w a 8 y m v t w k t @ M R V V c R H P ",
"7.t.k.M.V.M.c.g.q.<.t.A.Z.q.-.4.w.8.&.-.} X.l.l.c.k.p.w.q.w.y.a.A.a.k.M.l.M.V.y.B.{ X.q.} / X./ ` X.{ I Q } T a y.A.p.q.8.g.3.w.",
"Q / } %.<.q.p.f.a.w.k.M.3.S S @.} ( T / H / g.f.,.&.} / Q / ' } { R { &.X.-.<.} g.T R +.J M I C V M V J ( } ( I -.g.;.+.{ +.J I ",
"X.{ ! J V v l k ;.%...' R P / +.;.} ` ..J ! f.q.+...' ( ( { +.%.V m D T T ! ` ! w.T P ! C m H V H V S / } ( ! ( 7.k.8.<...&.R P ",
"T Q / ` ' ' ' ` { H M R @.-.@.+.&.` ( } M S <.{ ( / Q R R Q ! / I ! R T ! ! ! } <./ H D V V D S T T ! ( Q S V D @.<.;.<.( %.` P ",
"D I ` X.@...( R { S Q p.a.( H ' ,.} X.-.J I q.X.' ` / Q P D V M ! ..! H R P H { X./ C l v V V C M I ( ! J S D J ( { X.,.! -.+.T ",
"T { } ` -.%.R } +.k Q p.,...%.` ,.@.T ( v D I ,.I ' S m P S C R T T T R Q ! ! / { ( ! T M p k J M I / R R Q H k J ! +.-.+.( R R ",
"H { } Q R H D ..<.v J ,.' H R P } %.%.X.C m S ' T ( C c S V V T H H J P I I T T P J T ( R V v S P P D S H T P C c ` &.' ` -.;.' ",
"V / ( Q T D I X.;.g m @.` J ` ..{ ;.q.{ D g D Q H J M k C P T ../ / ( ( ` ' ' { k y a M S c f k ( J M S P H M c M } -.' ! } ' D ",
"I ( R ' +.} +...<.V P 7.3.} %.7.&.<.8.I J V { ..Q J J m C T T } ..X.X.+.@.%.%.%.R v p c S C V D ' P H / ' J f q J ! ..+.' J V M ",
"J P l M v g J m ' l V +...D m C T J P y V M Q D Q V I m l S l C M V V C S S D D g , + & < ; & ; l y a V S g 7 < , 3 7 7 < , 7 y ",
"..@.P D 8 % S M D k V ' } I M m H C D D ` ` / S 8 @ l f a D k m R Q Q ! / ( ( ( ;.X.X.,.<.X.` ` M m V H J H I / +.<...c a I X...",
"q.k.8.p.} D 3.../ Q ( @.3.<.-.%.+.+...3.<.<.X...X.R l.m.v.I.m.B.a.f.f.g.k.k.l.l.l.k.M.H.D.v.c.Z.;.t.g.t.<.3.t.g.a.m.t.Q S ' -.+.",
"S ( / y.<./ ;.m J J V v D P S M P H c P g c a D ..J g.f.7.f.} ` ' ' { } ....X.X.Q R / { ` ! +.w.( 8.l.8.{ R T T ' } ..{ ! I R ` ",
"^ *.| [  .o.$.K ^ ^ ~ W W E Y Y I P H S M v l k v ( f.@.@.{ ! ! +.} ' { X.+...' X...} } X.&.<.7.B 6.e._ ^ ] ) ] ^ ^ ^ ) ) _ _ _ ",
"E O._ _ _ _ [ A Y Y U L L K G G P J D C M v l k p S ,.Q ( ( { ..R T T T T R T T R T I I R ( } X.A 6.0._ ~ ) W ~ W W W ~ ~ ~ ^ ^ ",
"L | ~ ^ ~ U ~ N K G G F A Z Z Z H D S V m v l l t a ( M S J ! ` I R ! Q T I R Q Q R T I R / ' ..F =.1.) W ~ E E ) _ _ _ ] ] ] ] ",
"Y | ) ] ~ F U Z K G G F A Z Z Z C C V M m v c c g y / S C V H D R / ` ( Q R ! ` ( / Q R R / ' } n )  .~ E ) ) ~ ^ ) ) ) _ _ _ ] ",
"~ O.| O.) B L G U L L K G F F F M m m m v v v c V a +.X...( ` T I I T I I I I T R T J H H J T Q d B Y E E _ | _ E E E W W W ~ ~ ",
") O. .*.) x F L U L L K G G F F c c c v v v v v S t @.4.8.3.7.%.( R J I / ` Q P / Q I J H J I R d d Z Y U ) | ^ ] [ [ [ | | |  .",
"W | [ $.E u b F F F A A Z B N N k k l c c v v m M & T X.+.X.;...X.R C J { +./ S ( ! T J H J P I N d B Y K U W A _ _ ] ] ] [ [ [ ",
"U ) ) o.K 6 d B N N N n b x x z g g k l c v m m v . g V m m I V / m t g T ` H p H C m l k k l v L x A E F A G j n n n n N N B B ",
"b b N B A G K L z N n F n x b O < C a c c ` ( l J w C y p T S v f V D J v k   % t 7 < 4 p l v c x Y i = A s A [ N N N N N N N N ",
"s.d.h.j.x.b.n.N.U.U.F.S.u.>.*.x v.L.a.k.w.v.l.<.8.-.,.8.-.-.p.w.y.y.y.M.c.t.P X.( R J P Q ' { ' o.[ z A C.z.i.9.h.h.h.h.h.h.h.h.",
"$.$.*.=.:.>.>.1.$.:.=.5.:.:.5.L m.M.%.;.{ X.X.( ,.4.+.f.-./ a.y.y.,.&.g.l.t.H X.Q J V M S J H D ~ ^ G ] C.>.o. .*.*.*.*.*.*.*.*.",
"O.#.#.#.#.$.$.$.]  .o.>.>.6.d.| c.a./ @.' ..&.,.-.<.+.q.} X.t.4.,.X.` ;.q.w.D Q / P V v M V m c r b K #.z.] #.9.$.$.$.$.$.$.$.$.",
"| [ [ [ ] ] ] ] | o.| #.o.$.6.E t.;.C ` Q ( @.4.8.4.8.,.` B.p.3.<.8.;.-.7.m.' / { Q D V C C M c b s i E s.O.$.$.| | | | | | | | ",
"*.$.$.#.O.o. . . .O. .*.*.2.h.o.g.7.P X.( ' @.3.4.<.q.@.I L.t.&.X.8.;.' } y.Q H R D c k l c k a A u 1 z O.L Y n *.*.*.*.*.*.*.*.",
" .| [ ] ) ^ ~ W | | ) [ ) | 1.Y <.%.V / P T / ' ;.w.<.4.T v.p.,.+.7.;.' / -.S H Q J M v m V M c e 0 r N | U  .Y  . . . . . . . .",
"$.#.O. .[ ] ) ) _ ] ~ [ ] $.r.[ @.+.C ( R ` ....T <.R <.M { <.X.+.,.%.} R ( g H J M k f l v c k s i d N ) F U u $.$.$.$.$.$.$.$.",
"o.o.o.o.o.O.O.O.O. .[ ^ ^  .| E / } { Q R ` ( T { / / -.Q T ,.;.;...+.P } ! , / H t f D m a y 4 k V M k v P D g 8 f D ( +.%.+...",
"~ ~ ) _ [ |  .o.O.|  .=.:.] A h / } ..( ( X.+.' T { ..+.D H -.@.%.} +.T +.{ y ..Q g k S v g k p y c m k v P P V g l M D T ( { ..",
"K L Y W ^ _ ] [ [ ~ W | o.K h h ' X.} R P T P V I T C V V H { m c l V g I R p ` &.D v m g c H S 3 y f p f M D D l c v m C H I T ",
"n b j s e 6 1 > o 5 e 0 0 * o $ f c k w 7 q 7 - p 8 % % 8 , p - y y f 7 g k , c v 7 7 w 3 4 8 & 7 t p w q y l m f l m C S M c k ",
"|  .#.*.>.5.9.0.0 :.j.2.$.] L U C I Q T / +.&.X.,.3.w.w.w.J 4.B.v.m.c.7.7.4.} %.{ ' <.p.8.,.{ c p.q.4.<.;.;.<.8.4.7.q.q.8.4.,.-.",
"E ) o.2.s.N.G.P.E J.T.u.2.>. .o.I ` } ' X.3.7.,.w.4.y.f.Z./ p.Y.-.4.3.%.&.,.-.%.,.-.8.w.3.7.;.P c.7.+.@.&.@.+.%.-.+.` Q T Q ` } ",
"o.O.O.#.*.=.:.:. .C.j.]  .o.)  .+.;.;.+.@.,.,.@.X.R T Q k.Q <.a.D ! ( / ' -.3.%.&.....` R } X.D c.@.I / %.%.....+.' T D S J Q ` ",
"|  .O.*.>.2.6.9.) u.>.[ 9.2.) | H Q ! T R { ..( ` { X./ l.{ a.M.X.,.;.+.X.-.4...{ ..,.,.@.;...c l.{ V R ;.<.&.+.+.X...} { { { { ",
"G  .*.O.>.W 2.| K s.0.o. . .*.| T T T T R R R R } ..X.T 3.%.8.a.Q ! ` ..@.;.3.4.} } +.-.;.+.R C <.J D / R R ` ! } { ' ( ! R I I ",
") | ] _ =.^ :.) h 6.5.] ~ ~ [ E { { ` ( ! Q T T / ` { P -.{ @.;.R Q ( { X.&.;.<.+.+.@.&.&.} J c ..J D R T P Q ( ` ` ( / ! Q R R ",
"~ ^ _ *.s.>.>.^ s r.s.#._ _  .W ! ! ! Q Q Q R R ! } ..! -.{ ( } R ! ( { X.@.-.;.t.4.%.} ( T M g I I J P T H P } ! ! ! / / / / / ",
" .^ Y W O.=.e.u.0 9.i.o.^ ~ ] U a f l m S J I R / X.X.{ &.' I R T R ! ( { ..X.+.} ` / / / R C l l J H C H M M ` J J P I R Q ! ! ",
"W ] o.o.[ #.#.:.0 >.1._ Y L W G c v M D P R / ( / @.} } +.' D I ( ` ' } ..+.@.%.....+.%.+.Q c 8 m / ! P R J D ( R R Q ! ( ` ' ' ",
"> h F x 5 d 1 1 : K B d d r d u k k k g g g f f 4 f 7 q 8 8 @ , p p a f g k l l J M f y y w 7 , q c v a a p w q g g g g g k k k ",
"#.=.] j 6 O. .=.O.0.| ] $.| O.O.,.;.-.%.@.X...} H / M D V P c P P I I I T T R R R H M C ! -.w.a.&.;.,.@.} @.{ S %.@.+.X...} } { ",
"U O.=.[ ] P.s.>.5.6.W ^ *.| O.*.-.-.-.-.;.;.;.;.( @.J R P ' P X.J J J P P P P P ! / ' %.4.4.;.+.a.q.y.8.-.7.,.S 7.7.3.,.-.%.@.+."
};
